X: 41112
T: Trip To Sligo, The
R: jig
M: 6/8
K: Eminor
|:D|E2e BGE|D2d AFD|E2e BGE|GFE e2f|
gfe dcB|ABG FED|EFG FGA|BGF E2:|
|:B|eBe gfe|dAd fed|eBe gfe|faf gfe|
f/g/af gfe|dcB AFD|EFG FGA|BGF E2:|

